X:1
T:Title
%%score { ( 1 3 ) | 2 }
L:1/8
M:4/4
K:Eb
V:1 treble nm="Grand Piano"
V:3 treble 
V:2 bass 
V:1
 z4 z2[Q:1/4=96] [EG][FA] | [GB][GB][Ac][GB] G2 FE | G[GB][Ge][Bd] c2 de | %3
 [Ge][GB][GB][Ac] [GB]2 G2 | F6 z2 | [GB][GB][Ac][GB] G2 FE | G[GB][Ge][Bd] c2 de | %7
 eB[GB][EB] [DB]2 D2 |[M:3/4] E6 |[M:1/4] G>G |[M:4/4] [B,DF]2 D>F B2 c>c | d4 B2 [Fd][Fd] | %12
 [Gf][Ge][Gd][Gc] B2 z E | [DB]4- [DB][FA][EG][FA] | [GB][GB][Ac][GB] G2 FE | G[GB][Ge][Bd] c2 de | %16
 eB[GB][EB] [DB]2 D2 |[M:7/4] E6 z2 z2 z4 |] %18
V:2
 z4 z2 [E,B,][E,B,] | [E,E][E,E][E,E][E,E] [E,B,E]2 [E,A,E][E,G,] | %2
 [E,B,E][E,B,][E,B,][K:treble][G,E] [A,EA]2 [A,CA][A,CA] | [E,B,][E,E][E,E][E,E] [E,E]2 [E,B,E]2 | %4
 [B,D]6 [G,B,E][F,B,F] | [E,E][E,E][E,E][E,E] [E,B,E]2 [E,A,E][E,G,] | %6
 [E,B,E][E,B,][E,B,][K:treble][G,E] [A,EA]2 [A,CA][=A,CF] | %7
 [B,G][B,EG][K:bass][B,,B,][B,,G,] [B,,F,]2 [B,,A,B,]2 |[M:3/4] [E,G,B,]6 | %9
[M:1/4] [E,B,E]>[E,B,E] |[M:4/4] B,,2 D,>F, B,2[K:treble] [F,=A,F]>[F,A,F] | %11
 [B,F]4 [B,DF]2[K:bass] [B,,B,][B,,B,] | [E,B,][E,B,][E,B,][E,E] [F,DF]2 .[F,CF]2 | %13
 [B,,B,]6 [E,B,][E,B,] | [E,E][E,E][E,E][E,E] [E,B,E]2 [E,A,E][E,G,] | %15
 [E,B,E][E,B,][E,B,][K:treble][G,E] [A,EA]2 [A,CA][=A,CF] | %16
 [B,G][B,EG][K:bass][B,,B,][B,,G,] [B,,F,]2 [B,,A,B,]2 |[M:7/4] [E,G,B,]6 z2 z2 z4 |] %18
V:3
 x8 | x8 | x8 | x8 | z4 z A,GA | x8 | x8 | x8 |[M:3/4] x6 |[M:1/4] x2 |[M:4/4] x8 | x8 | %12
 z4 z2 =A2 | x8 | x8 | x8 | x8 |[M:7/4] x14 |] %18

